packages/core/src/svgs/tokens/branded/MOONED.svg

<svg width="24" height="24" viewBox="0 0 24 24" fill="none" xmlns="http://www.w3.org/2000/svg">
<path d="M17.1199 4.48126L17.4851 4.02761C17.5029 4.00405 17.5264 3.99815 17.5441 4.00993C17.7679 4.12777 17.98 4.23971 18.1921 4.36344C20.4014 5.63011 21.4737 7.98674 21.8979 10.4494C22.1285 12.1521 21.9673 13.8851 21.4267 15.5162C21.1051 16.5503 20.5485 17.4961 19.8005 18.2793C19.7828 18.2911 19.7652 18.2911 19.7475 18.2793L18.9463 17.6489C18.9286 17.6313 18.911 17.637 18.8992 17.6489L18.4278 18.2145C17.1651 19.6809 15.4693 20.7082 13.585 21.1484C11.9354 21.5491 10.327 21.5137 8.76565 21.0543C6.55427 20.4024 4.65818 18.9633 3.43559 17.0087C2.21299 15.0541 1.74857 12.7195 2.13006 10.4459C2.51154 8.17222 3.7125 6.11701 5.50606 4.66851C7.29964 3.22002 9.56167 2.47853 11.8646 2.58418C13.7735 2.68434 15.5056 3.32062 17.0668 4.49894C17.0905 4.51072 17.1081 4.51072 17.1258 4.48716L17.1199 4.48126Z" fill="#050505"/>
<path d="M9.10818 3.83908C9.4499 4.02761 9.61487 4.31039 9.60304 4.68746C9.57363 5.50638 8.44833 5.80096 8.01236 5.09397C7.85917 4.84064 7.80615 4.44591 7.99468 4.18667C8.02812 4.14366 8.07306 4.11097 8.1243 4.09241C8.39531 3.98047 8.65453 3.8921 8.8902 3.8155C8.92612 3.80367 8.96414 3.79964 9.00174 3.80371C9.03934 3.80776 9.07563 3.81983 9.10818 3.83908Z" fill="#DBDBDB"/>
<path d="M17.4559 17.9788L14.4335 15.5692L12.2477 13.8371C12.2366 13.8286 12.2271 13.818 12.2199 13.8059C12.2129 13.7936 12.2084 13.7803 12.2065 13.7663L11.7822 9.67753C11.7822 9.65993 11.7822 9.64811 11.794 9.63051L15.7178 4.66977L15.7356 4.65799H15.7591C16.03 4.82885 16.2893 4.9997 16.5308 5.18824C16.5486 5.20002 16.5486 5.2118 16.5368 5.22358L13.0962 9.57154C13.0903 9.58006 13.0863 9.58968 13.0842 9.59986C13.0821 9.60989 13.0821 9.62034 13.0843 9.63051L13.4555 13.2302C13.4561 13.2416 13.4589 13.2526 13.464 13.2627C13.4691 13.2729 13.4763 13.2818 13.4849 13.2891L18.2158 17.0596L18.2217 17.0715V17.0833C17.9861 17.4073 17.7268 17.7019 17.4559 17.9788Z" fill="#7533E0"/>
<path d="M13.1371 7.0264C13.1995 7.0264 13.2594 7.00157 13.3037 6.95737C13.3478 6.91318 13.3727 6.85324 13.3727 6.79073C13.3727 6.72823 13.3478 6.66829 13.3037 6.62409C13.2594 6.5799 13.1995 6.55507 13.1371 6.55507C13.0745 6.55507 13.0146 6.5799 12.9703 6.62409C12.9262 6.66829 12.9013 6.72823 12.9013 6.79073C12.9013 6.92035 13.0074 7.0264 13.1371 7.0264ZM16.6013 7.3033C16.7132 7.21492 16.7367 7.06764 16.6601 6.9557C16.641 6.92966 16.6168 6.90782 16.5891 6.89151C16.5612 6.87522 16.5302 6.86482 16.4982 6.86095C16.4662 6.85708 16.4337 6.85984 16.4028 6.86904C16.3719 6.87825 16.3431 6.8937 16.3184 6.91446C16.2916 6.93325 16.2686 6.95721 16.2512 6.98492C16.2336 7.01265 16.2218 7.04358 16.2163 7.07593C16.2108 7.10827 16.2117 7.14139 16.2191 7.17334C16.2266 7.2053 16.2403 7.23545 16.2596 7.26206C16.342 7.36811 16.4952 7.37989 16.6013 7.3033ZM18.5337 13.9077C19.4057 13.5072 19.2761 12.2934 18.3747 12.0225C18.3609 12.0178 18.3486 12.0101 18.3382 11.9998C18.3281 11.9896 18.3204 11.9773 18.3157 11.9635C18.3103 11.9514 18.3076 11.9384 18.3076 11.9252C18.3076 11.9121 18.3103 11.899 18.3157 11.8869C19.1228 10.467 19.6472 8.94114 19.8888 7.31508C19.8888 7.29152 19.9006 7.29152 19.9123 7.31508C20.148 7.71571 20.3542 8.15168 20.5192 8.61123C20.8373 9.51847 21.0376 10.3551 21.1083 11.1152C21.1554 11.5276 21.1554 12.046 21.1142 12.6764C21.0342 14.2477 20.5358 15.7691 19.6707 17.0833H19.6531L16.3539 14.4557C16.3361 14.438 16.3361 14.4202 16.3539 14.3967C16.6071 14.1493 16.8545 13.8841 17.0903 13.6131C17.1432 13.5542 17.2257 13.5072 17.2906 13.5837C17.644 14.0196 18.0564 14.1315 18.5337 13.9077ZM7.19832 9.08844C7.3515 9.08844 7.47523 8.95882 7.47523 8.80564C7.47524 8.73165 7.44626 8.6606 7.39449 8.60774C7.34273 8.55487 7.27231 8.52439 7.19832 8.52285C7.12435 8.52439 7.05392 8.55487 7.00215 8.60774C6.9504 8.6606 6.9214 8.73165 6.92142 8.80564C6.92142 8.95882 7.04514 9.08844 7.19832 9.08844ZM3.90495 9.01184C3.96975 9.01184 4.02277 8.95294 4.02277 8.89402C4.02357 8.87806 4.02112 8.8621 4.01556 8.84711C4.00999 8.83213 4.00144 8.81844 3.99043 8.80686C3.9794 8.79529 3.96614 8.78608 3.95144 8.7798C3.93674 8.77351 3.92094 8.77028 3.90495 8.7703C3.8737 8.7703 3.84372 8.78271 3.82163 8.80481C3.79954 8.82691 3.78711 8.85687 3.78711 8.88812C3.78711 8.95882 3.84603 9.00596 3.90495 9.00596V9.01184Z" fill="#DBDBDB"/>
<path d="M18.1166 13.89C18.3489 13.887 18.5706 13.7926 18.7338 13.627C18.897 13.4617 18.9885 13.2387 18.9885 13.0064C18.99 12.8903 18.9687 12.775 18.9257 12.6672C18.8828 12.5594 18.819 12.4612 18.7381 12.378C18.6571 12.2948 18.5604 12.2284 18.4538 12.1825C18.3472 12.1367 18.2326 12.1124 18.1166 12.1107C18.0005 12.1116 17.8857 12.1352 17.7788 12.1803C17.6718 12.2254 17.5749 12.2912 17.4934 12.3739C17.4119 12.4565 17.3474 12.5542 17.3037 12.6619C17.26 12.7694 17.2378 12.8844 17.2387 13.0005C17.2387 13.4953 17.6335 13.89 18.1166 13.89ZM6.42179 15.1627C7.05808 15.1627 7.57654 14.6324 7.57654 13.9843C7.57654 13.3363 7.05808 12.8178 6.42179 12.8178C5.7855 12.8178 5.26705 13.3422 5.26705 13.9902C5.26705 14.6383 5.7855 15.1685 6.42179 15.1685V15.1627ZM2.95166 13.301V13.2714C2.95467 13.2662 2.95895 13.2619 2.9641 13.2588C2.96926 13.2557 2.97511 13.2539 2.98112 13.2538H3.00468C3.04004 13.242 3.08128 13.2538 3.11074 13.2773C3.14608 13.295 3.16965 13.3363 3.16965 13.3716L3.17554 13.401C3.18148 13.4382 3.17306 13.4761 3.15198 13.5072C3.12946 13.5384 3.09562 13.5594 3.05772 13.566L3.03414 13.5719C3.02952 13.574 3.0245 13.5751 3.01942 13.5751C3.01433 13.5751 3.00931 13.574 3.00468 13.5719C3.00087 13.5681 2.99788 13.5634 2.99586 13.5583C2.99382 13.5534 2.99283 13.5479 2.9929 13.5425L2.95166 13.301ZM11.0113 18.6799C11.4344 18.6452 11.8273 18.447 12.1067 18.1274C12.386 17.8078 12.5299 17.3919 12.5077 16.968C12.4854 16.544 12.2988 16.1455 11.9876 15.8568C11.6764 15.5681 11.2648 15.4121 10.8404 15.4218C10.4174 15.4566 10.0244 15.6547 9.74507 15.9743C9.46573 16.2939 9.32193 16.7099 9.3442 17.1339C9.36634 17.5577 9.55288 17.9564 9.86411 18.2449C10.1755 18.5336 10.5869 18.6896 11.0113 18.6799Z" fill="#DBDBDB"/>
<path d="M14.4341 15.5692L17.4565 17.9788C16.0257 19.4379 14.1181 20.3342 12.0816 20.5039C10.0451 20.6737 8.01536 20.1058 6.36269 18.9038C6.33913 18.8861 6.33913 18.8742 6.37447 18.8685C7.41139 18.7211 8.42474 18.4973 9.40272 18.2027C9.49703 18.1731 9.59133 18.2144 9.65608 18.2793C9.88496 18.5207 10.1776 18.6922 10.5001 18.7738C10.8226 18.8553 11.1618 18.8435 11.4778 18.7398C11.7939 18.636 12.074 18.4446 12.2856 18.1879C12.497 17.9312 12.6313 17.6196 12.6726 17.2895C12.702 17.0833 12.6136 16.8064 12.8257 16.6827C13.3796 16.3528 13.9157 15.9816 14.4341 15.5692ZM6.32735 18.2556C6.59836 18.2556 6.81046 18.0377 6.81046 17.7609C6.81046 17.6321 6.75976 17.5086 6.66932 17.4171C6.57888 17.3255 6.45601 17.2734 6.32735 17.2718C6.19868 17.2734 6.07581 17.3255 5.98538 17.4171C5.89494 17.5086 5.84422 17.6321 5.84424 17.7609C5.84424 18.0377 6.06222 18.2556 6.32735 18.2556Z" fill="#DBDBDB"/>
</svg>

<svg xmlns="http://www.w3.org/2000/svg" width="24" height="24" fill="none" viewBox="0 0 24 24">
    <path fill="#050505" d="m17.12 4.481.365-.453c.018-.024.041-.03.06-.018.223.118.435.23.647.353 2.21 1.267 3.282 3.624 3.706 6.086a11.3 11.3 0 0 1-.471 5.067A7 7 0 0 1 19.8 18.28a.044.044 0 0 1-.053 0l-.802-.63c-.017-.018-.035-.012-.047 0l-.471.566a9.13 9.13 0 0 1-4.843 2.933c-1.65.401-3.258.366-4.82-.094a9.433 9.433 0 0 1 3.1-18.47c1.909.1 3.64.737 5.202 1.915.023.012.041.012.059-.012z"/>
    <path fill="#DBDBDB" d="M9.108 3.84q.513.282.495.847c-.03.82-1.155 1.114-1.59.407-.154-.253-.207-.648-.018-.907a.3.3 0 0 1 .13-.095c.27-.112.53-.2.765-.276a.27.27 0 0 1 .218.023"/>
    <path fill="#7533E0" d="m17.456 17.979-3.022-2.41-2.186-1.732a.1.1 0 0 1-.028-.031.1.1 0 0 1-.014-.04l-.424-4.088c0-.018 0-.03.012-.047l3.924-4.961.018-.012h.023c.271.17.53.342.772.53q.026.018.006.036l-3.44 4.348a.08.08 0 0 0-.013.059l.372 3.6a.08.08 0 0 0 .029.058l4.73 3.77.007.012v.012a8 8 0 0 1-.766.896"/>
    <path fill="#DBDBDB" d="M13.137 7.026a.236.236 0 1 0 0-.471.236.236 0 0 0 0 .471m3.464.277a.254.254 0 0 0 .06-.347.24.24 0 0 0-.258-.087.2.2 0 0 0-.085.045.246.246 0 0 0-.058.348.25.25 0 0 0 .341.041m1.933 6.605c.872-.4.742-1.615-.16-1.885a.1.1 0 0 1-.058-.06.1.1 0 0 1 0-.076 13.1 13.1 0 0 0 1.573-4.572c0-.023.012-.023.023 0 .236.4.442.837.607 1.296.318.907.519 1.744.59 2.504q.068.618.005 1.561a8.83 8.83 0 0 1-1.443 4.407h-.018l-3.3-2.627q-.025-.025 0-.06c.254-.247.502-.512.737-.783.053-.059.136-.106.2-.03.354.437.766.549 1.244.325M7.198 9.088a.282.282 0 0 0 .196-.48.28.28 0 0 0-.196-.085.283.283 0 0 0 0 .565m-3.293-.076a.122.122 0 0 0 .085-.205.118.118 0 1 0-.085.199z"/>
    <path fill="#DBDBDB" d="M18.117 13.89a.88.88 0 0 0 .871-.884.885.885 0 0 0-.871-.895.887.887 0 0 0-.878.89c0 .494.395.889.878.889M6.422 15.163a1.17 1.17 0 0 0 1.155-1.179 1.16 1.16 0 0 0-1.155-1.166c-.636 0-1.155.524-1.155 1.172a1.17 1.17 0 0 0 1.155 1.178zM2.952 13.3v-.03a.04.04 0 0 1 .03-.017h.023a.12.12 0 0 1 .106.023.11.11 0 0 1 .059.095l.006.029a.15.15 0 0 1-.024.106.15.15 0 0 1-.094.059l-.024.006a.04.04 0 0 1-.03 0l-.008-.014-.003-.015zm8.06 5.379a1.632 1.632 0 0 0-.172-3.258 1.633 1.633 0 0 0 .171 3.258"/>
    <path fill="#DBDBDB" d="m14.434 15.57 3.022 2.409a8.52 8.52 0 0 1-11.093.925c-.024-.018-.024-.03.011-.035a20.5 20.5 0 0 0 3.029-.666c.094-.03.188.011.253.076a1.757 1.757 0 0 0 3.017-.99c.029-.206-.06-.483.153-.606q.831-.495 1.608-1.114m-8.107 2.686a.484.484 0 0 0 .483-.495.49.49 0 0 0-.483-.49.49.49 0 0 0-.483.49c0 .277.218.495.483.495"/>
</svg>
